src/img/yelp.svg

<svg width="80" height="40" viewBox="0 0 80 40" fill="none" xmlns="http://www.w3.org/2000/svg">
<g id="logo_desktop 1">
<path id="Vector" d="M64.7217 22.0649L66.0177 21.7649C66.0605 21.7554 66.1028 21.7441 66.1447 21.7309C66.5024 21.6347 66.8089 21.4034 66.9995 21.0857C67.1902 20.7681 67.2501 20.3888 67.1667 20.0279L67.1607 20.0049C67.118 19.8319 67.0434 19.6684 66.9407 19.5229C66.7954 19.3389 66.6157 19.1851 66.4117 19.0699C66.1713 18.9328 65.9197 18.8164 65.6597 18.7219L64.2397 18.2039C63.4427 17.9079 62.6447 17.6189 61.8397 17.3369C61.3187 17.1519 60.8767 16.9889 60.4917 16.8709C60.4197 16.8479 60.3397 16.8259 60.2747 16.8039C59.8097 16.6609 59.4847 16.6019 59.2077 16.6009C59.0233 16.5941 58.8397 16.6275 58.6697 16.6989C58.492 16.7753 58.3325 16.8884 58.2017 17.0309C58.1367 17.105 58.0756 17.1824 58.0187 17.2629C57.9078 17.4332 57.8162 17.6153 57.7457 17.8059C57.4822 18.5852 57.351 19.4032 57.3577 20.2259C57.3637 20.9699 57.3837 21.9239 57.7927 22.5709C57.8907 22.7369 58.0227 22.8809 58.1807 22.9919C58.4717 23.1929 58.7657 23.2199 59.0727 23.2419C59.5297 23.2739 59.9727 23.1619 60.4147 23.0599L64.7187 22.0639L64.7217 22.0649ZM79.1727 15.1829C78.8189 14.4406 78.3434 13.7629 77.7657 13.1779C77.6907 13.1038 77.6105 13.0353 77.5257 12.9729C77.4476 12.914 77.3664 12.8593 77.2827 12.8089C77.196 12.7618 77.1069 12.7194 77.0157 12.6819C76.8361 12.6111 76.6435 12.5791 76.4507 12.5879C76.2663 12.599 76.0866 12.6499 75.9237 12.7369C75.6767 12.8599 75.4097 13.0569 75.0537 13.3869C75.0047 13.4369 74.9437 13.4919 74.8877 13.5429C74.5947 13.8189 74.2677 14.1599 73.8797 14.5559C73.2797 15.1619 72.6897 15.7719 72.1027 16.3879L71.0527 17.4779C70.8607 17.6779 70.6857 17.8919 70.5297 18.1209C70.3967 18.3139 70.3027 18.5309 70.2527 18.7609C70.2231 18.9367 70.2272 19.1166 70.2647 19.2909L70.2707 19.3139C70.3538 19.6744 70.5737 19.9886 70.8839 20.1902C71.1941 20.3919 71.5704 20.4652 71.9337 20.3949C71.9907 20.3869 72.0357 20.3769 72.0637 20.3709L77.6637 19.0749C78.1057 18.9729 78.5537 18.8789 78.9497 18.6489C79.2157 18.4939 79.4687 18.3409 79.6417 18.0329C79.7346 17.8631 79.7908 17.6758 79.8067 17.4829C79.8927 16.7199 79.4937 15.8529 79.1727 15.1829ZM69.1487 17.5409C69.5547 17.0309 69.5527 16.2709 69.5887 15.6489C69.7107 13.5729 69.8387 11.4969 69.9397 9.41888C69.9797 8.63288 70.0637 7.85688 70.0157 7.06388C69.9777 6.40988 69.9727 5.65888 69.5597 5.12188C68.8297 4.17588 67.2757 4.25388 66.2157 4.40188C65.8907 4.44688 65.5657 4.50688 65.2427 4.58488C64.9197 4.66288 64.6007 4.74688 64.2877 4.84788C63.2707 5.18088 61.8397 5.79288 61.5977 6.96588C61.4617 7.62888 61.7857 8.30588 62.0367 8.91188C62.3407 9.64488 62.7567 10.3049 63.1367 10.9949C64.1377 12.8179 65.1587 14.6279 66.1767 16.4409C66.4807 16.9809 66.8117 17.6669 67.3997 17.9469C67.4387 17.9639 67.4777 17.9789 67.5187 17.9919C67.7817 18.0919 68.0687 18.1119 68.3437 18.0469L68.3937 18.0359C68.6467 17.9659 68.8757 17.8289 69.0557 17.6369C69.0887 17.6069 69.1197 17.5749 69.1487 17.5409ZM68.6647 23.0999C68.5063 22.8769 68.2814 22.7097 68.0221 22.6224C67.7629 22.5351 67.4827 22.5321 67.2217 22.6139C67.1597 22.6339 67.1007 22.6589 67.0417 22.6879C66.9526 22.7339 66.8677 22.7875 66.7877 22.8479C66.5547 23.0199 66.3577 23.2449 66.1797 23.4699C66.1337 23.5279 66.0927 23.6039 66.0387 23.6539L65.1387 24.8939C64.6277 25.5879 64.1237 26.2839 63.6247 26.9909C63.2987 27.4479 63.0177 27.8329 62.7947 28.1739C62.7527 28.2389 62.7087 28.3109 62.6687 28.3679C62.4017 28.7809 62.2507 29.0819 62.1737 29.3499C62.1153 29.5284 62.0969 29.7175 62.1197 29.9039C62.1447 30.0979 62.2097 30.2839 62.3117 30.4509C62.3657 30.5349 62.4237 30.6159 62.4857 30.6939C62.6206 30.8491 62.7726 30.9886 62.9387 31.1099C63.5607 31.5429 64.2417 31.8539 64.9587 32.0939C65.5546 32.2913 66.1739 32.4094 66.8007 32.4449C66.9067 32.4499 67.0137 32.4479 67.1207 32.4379C67.219 32.4293 67.3168 32.4157 67.4137 32.3969C67.5108 32.374 67.6066 32.346 67.7007 32.3129C67.8811 32.2489 68.0451 32.1459 68.1812 32.0113C68.3172 31.8766 68.4219 31.7136 68.4877 31.5339C68.5917 31.2739 68.6597 30.9439 68.7047 30.4559C68.7087 30.3859 68.7187 30.3019 68.7257 30.2259C68.7607 29.8199 68.7777 29.3429 68.8037 28.7819C68.8467 27.9199 68.8817 27.0619 68.9087 26.1999L68.9657 24.6699C68.9787 24.3159 68.9677 23.9259 68.8697 23.5749C68.8267 23.4066 68.7582 23.2462 68.6647 23.0999ZM78.8347 25.4929C78.6467 25.2869 78.3807 25.0809 77.9597 24.8269C77.8997 24.7929 77.8277 24.7479 77.7627 24.7089C77.4127 24.4989 76.9907 24.2769 76.4987 24.0089C75.7428 23.5957 74.9835 23.189 74.2207 22.7889L72.8707 22.0729C72.8007 22.0529 72.7297 22.0029 72.6637 21.9709C72.4042 21.838 72.1286 21.7395 71.8437 21.6779C71.7454 21.6593 71.6457 21.6493 71.5457 21.6479C71.4811 21.646 71.4166 21.6497 71.3527 21.6589C71.0826 21.7005 70.8326 21.8264 70.6382 22.0185C70.4439 22.2107 70.3153 22.4593 70.2707 22.7289C70.2507 22.9009 70.2567 23.0749 70.2897 23.2439C70.3557 23.6039 70.5167 23.9589 70.6827 24.2699L71.4037 25.6209C71.8047 26.3829 72.2117 27.1409 72.6277 27.8959C72.8967 28.3879 73.1197 28.8099 73.3287 29.1589C73.3687 29.2249 73.4137 29.2959 73.4487 29.3559C73.7027 29.7759 73.9077 30.0409 74.1147 30.2299C74.2497 30.3599 74.4107 30.4589 74.5877 30.5199C74.7727 30.5809 74.9697 30.6029 75.1637 30.5839C75.2625 30.5718 75.3607 30.5544 75.4577 30.5319C75.5537 30.5069 75.6477 30.4759 75.7407 30.4409C75.8407 30.4029 75.9377 30.3579 76.0307 30.3059C76.5786 29.9985 77.0836 29.6202 77.5327 29.1809C78.0717 28.6509 78.5477 28.0719 78.9177 27.4109C78.9694 27.317 79.0142 27.2194 79.0517 27.1189C79.0866 27.0265 79.1166 26.9324 79.1417 26.8369C79.1637 26.7389 79.1807 26.6409 79.1917 26.5419C79.2103 26.3474 79.1878 26.1511 79.1257 25.9659C79.0647 25.7889 78.9647 25.6274 78.8347 25.4929Z" fill="#FF1A1A"/>
<path id="Vector_2" fill-rule="evenodd" clip-rule="evenodd" d="M32.3508 12.3521C32.3508 11.2391 33.2588 10.3291 34.3528 10.3291C35.4328 10.3291 36.3078 11.2391 36.3548 12.3681V28.1581C36.3548 29.2721 35.4478 30.1811 34.3528 30.1811C34.0881 30.1811 33.826 30.1286 33.5817 30.0267C33.3375 29.9248 33.1158 29.7755 32.9297 29.5873C32.7435 29.3992 32.5965 29.176 32.4971 28.9307C32.3977 28.6854 32.348 28.4228 32.3508 28.1581V12.3521ZM30.4908 22.1061C30.4748 22.4191 30.3968 22.9991 29.9908 23.4231C29.5518 23.8781 28.9578 23.9871 28.6138 23.9871C27.1828 23.9951 25.7518 23.9991 24.3208 24.0031C22.8908 24.0071 21.4588 24.0111 20.0278 24.0191C20.1538 24.4111 20.4038 25.0071 20.9668 25.5551C21.3108 25.8851 21.6388 26.0731 21.7798 26.1511C21.9518 26.2611 22.5458 26.5751 23.2808 26.5751C24.0628 26.5751 24.7508 26.3241 25.4238 25.9791L25.4798 25.9491C25.9468 25.7081 26.4298 25.4581 26.9398 25.3671C27.4408 25.2891 27.9728 25.3831 28.3638 25.7271C28.8328 26.1361 29.0208 26.7321 28.8488 27.3431C28.6448 28.0331 28.0668 28.6291 27.4568 28.9901C27.1128 29.1931 26.7368 29.3661 26.3618 29.5071C25.3938 29.8502 24.3702 30.0096 23.3438 29.9771C23.0938 29.9771 22.8278 29.9771 22.5618 29.9471C22.2825 29.9111 22.0057 29.8584 21.7328 29.7891C21.3012 29.6955 20.8816 29.5536 20.4818 29.3661C20.0814 29.1887 19.699 28.9734 19.3398 28.7231C18.9816 28.4656 18.6469 28.1768 18.3398 27.8601C18.034 27.5398 17.7564 27.1939 17.5098 26.8261C16.6658 25.5401 16.2748 23.9561 16.3528 22.4191C16.4158 20.9141 16.9158 19.4091 17.8228 18.1851C17.9191 18.0417 18.0261 17.9056 18.1428 17.7781C18.1888 17.7251 18.2338 17.6731 18.2768 17.6211C19.3968 16.2511 20.8938 15.8181 21.5108 15.6391L21.5448 15.6291C22.7973 15.2734 24.1242 15.2734 25.3768 15.6291C25.6738 15.7081 27.3468 16.2251 28.6448 17.6211C28.7078 17.6841 28.8798 17.8871 29.0988 18.1851C29.654 18.9411 30.0618 19.795 30.3008 20.7021L30.3028 20.7101C30.3968 21.0551 30.4908 21.5251 30.4908 22.1061ZM21.3108 19.5181C20.693 20.0204 20.2631 20.7167 20.0908 21.4941H26.9088C26.7247 20.7179 26.2908 20.0236 25.6738 19.5181C25.0519 19.0193 24.2809 18.7432 23.4838 18.7341C23.1868 18.7341 22.2178 18.7811 21.3108 19.5181ZM47.2388 15.3631C45.4568 15.3631 43.8298 16.1631 42.6728 17.4641V17.4171C42.6582 16.8883 42.4341 16.3869 42.0498 16.0232C41.6656 15.6596 41.1526 15.4635 40.6238 15.4781C40.0949 15.4927 39.5935 15.7168 39.2299 16.101C38.8663 16.4853 38.6702 16.9983 38.6848 17.5271V32.5971C38.6848 33.7101 39.5768 34.6031 40.6868 34.6031C41.7968 34.6031 42.6888 33.7101 42.6888 32.5961V27.8921C43.8458 29.1781 45.4568 29.9931 47.2548 29.9931C50.8358 29.9931 53.7448 26.7471 53.7448 22.7021C53.7288 18.6561 50.8198 15.3631 47.2388 15.3631ZM46.3628 26.7161C44.3308 26.7161 42.6728 24.9441 42.6728 22.7331C42.6728 20.5061 44.3148 18.7341 46.3628 18.7341C48.3968 18.7341 50.0538 20.5061 50.0538 22.7331C50.0388 24.9431 48.3968 26.7161 46.3638 26.7161H46.3628ZM13.3508 23.7521L12.6938 25.1951C12.3968 25.8221 12.0998 26.4651 11.8178 27.1081C11.7278 27.3051 11.6378 27.5061 11.5458 27.7111C10.2958 30.4911 8.81276 33.7921 5.57876 34.4941C4.01476 34.8391 1.65276 34.3681 0.777763 32.8941C-0.0982374 31.4041 1.19976 29.6951 2.87276 30.0871C3.13676 30.1471 3.39676 30.2761 3.65776 30.4061C4.09376 30.6231 4.53676 30.8441 5.01576 30.7461C5.46876 30.6681 5.75076 30.3381 6.10976 29.9151C6.4951 29.4658 6.77312 28.9348 6.92276 28.3621C6.91435 28.3441 6.90668 28.3257 6.89976 28.3071C6.8928 28.2888 6.88513 28.2708 6.87676 28.2531C6.46876 27.4931 6.11376 26.8141 5.81676 26.2471C5.62276 25.8771 5.45476 25.5551 5.31276 25.2891L4.62976 23.9951C4.12976 23.0471 4.04776 22.8911 3.82676 22.4821C3.3407 21.5641 2.82984 20.6594 2.29476 19.7691C1.71476 18.7971 1.12176 17.7151 1.60576 16.5701C1.78788 16.1262 2.13013 15.767 2.56466 15.5636C2.99919 15.3603 3.49427 15.3276 3.95176 15.4721C4.95876 15.7781 5.40376 16.7361 5.82176 17.6321C5.89676 17.7931 5.97176 17.9531 6.04776 18.1071C6.71976 19.4401 7.37676 20.7731 8.03376 22.1051C8.09176 22.2381 8.17976 22.4191 8.28676 22.6381C8.38276 22.8341 8.49376 23.0611 8.61176 23.3131C8.67376 23.4431 8.73176 23.5651 8.78576 23.6751C8.85376 23.8151 8.91276 23.9371 8.95576 24.0351C9.26076 23.2741 9.56976 22.5171 9.87876 21.7611C10.1878 21.0041 10.4968 20.2471 10.8018 19.4871C10.8098 19.4441 10.8828 19.2821 10.9918 19.0371C11.1556 18.6753 11.3136 18.3109 11.4658 17.9441C11.8718 16.9551 12.3598 15.7661 13.4448 15.4411C13.8295 15.3299 14.2392 15.341 14.6173 15.4731C14.9954 15.6051 15.323 15.8515 15.5548 16.1781C15.7908 16.5081 15.8848 16.8841 15.8998 17.2601C15.9128 18.0921 15.5098 18.9851 15.1648 19.7521C15.0808 19.9391 15.0008 20.1181 14.9298 20.2871L14.8888 20.3791C14.7928 20.5931 14.5338 21.1771 14.0858 22.1371C13.9238 22.4811 13.7688 22.8261 13.6118 23.1741C13.5258 23.3651 13.4398 23.5581 13.3508 23.7521Z" fill="#FAFAFC"/>
</g>
</svg>

<svg width="80" height="40" fill="none" xmlns="http://www.w3.org/2000/svg"><path d="M64.722 22.065l1.296-.3c.043-.01.085-.02.127-.034a1.43 1.43 0 001.022-1.703l-.006-.023a1.43 1.43 0 00-.22-.482 1.805 1.805 0 00-.53-.453 4.89 4.89 0 00-.751-.348l-1.42-.518c-.797-.296-1.595-.585-2.4-.867-.521-.185-.963-.348-1.348-.466-.072-.023-.152-.045-.217-.067-.465-.143-.79-.202-1.067-.203a1.269 1.269 0 00-.538.098 1.37 1.37 0 00-.468.332 2.821 2.821 0 00-.183.232c-.111.17-.203.352-.273.543a7.368 7.368 0 00-.388 2.42c.006.744.026 1.698.435 2.345.098.166.23.31.388.42.29.202.585.229.892.25.457.033.9-.08 1.342-.181l4.304-.996h.003zm14.45-6.882a7.36 7.36 0 00-1.406-2.005 2.817 2.817 0 00-.483-.369 2.75 2.75 0 00-.267-.127 1.282 1.282 0 00-1.092.055c-.247.123-.514.32-.87.65-.05.05-.11.105-.166.156-.293.276-.62.617-1.008 1.013-.6.606-1.19 1.216-1.777 1.832l-1.05 1.09c-.192.2-.367.414-.523.643-.133.193-.227.41-.277.64a1.39 1.39 0 00.012.53l.006.023a1.428 1.428 0 001.663 1.08c.057-.007.102-.017.13-.023l5.6-1.296c.442-.102.89-.196 1.286-.426.266-.155.519-.308.692-.616.093-.17.149-.357.165-.55.086-.763-.313-1.63-.634-2.3zM69.15 17.54c.406-.51.404-1.27.44-1.892.122-2.076.25-4.152.35-6.23.04-.786.125-1.562.077-2.355-.038-.654-.043-1.405-.456-1.942-.73-.946-2.284-.868-3.344-.72-.325.045-.65.105-.973.183-.323.078-.642.162-.955.263-1.017.333-2.448.945-2.69 2.118-.136.663.188 1.34.439 1.946.304.733.72 1.393 1.1 2.083 1 1.823 2.022 3.633 3.04 5.446.304.54.635 1.226 1.223 1.506.039.017.078.032.119.045.263.1.55.12.825.055l.05-.011c.253-.07.482-.207.662-.4.033-.03.064-.061.093-.095zm-.484 5.559a1.295 1.295 0 00-1.623-.412c-.09.046-.174.1-.254.16-.233.172-.43.397-.608.622-.046.058-.087.134-.141.184l-.9 1.24c-.511.694-1.015 1.39-1.514 2.097-.326.457-.607.842-.83 1.183-.042.065-.086.137-.126.194-.267.413-.418.714-.495.982a1.281 1.281 0 00-.054.554c.025.194.09.38.192.547.054.084.112.165.174.243.135.155.287.295.453.416.622.433 1.303.744 2.02.984a7.142 7.142 0 001.842.35c.106.006.213.004.32-.006.098-.009.196-.022.293-.041.097-.023.193-.051.287-.084a1.303 1.303 0 00.787-.78c.104-.26.172-.59.217-1.077.004-.07.014-.154.02-.23.036-.406.053-.883.079-1.444.043-.862.078-1.72.105-2.582l.057-1.53c.013-.354.002-.744-.096-1.095a1.63 1.63 0 00-.205-.475zm10.17 2.393c-.188-.206-.454-.412-.875-.666-.06-.034-.132-.08-.197-.118-.35-.21-.772-.432-1.264-.7a150.76 150.76 0 00-2.278-1.22l-1.35-.716c-.07-.02-.141-.07-.207-.102a3.354 3.354 0 00-.82-.293 1.733 1.733 0 00-.298-.03 1.122 1.122 0 00-.193.01 1.298 1.298 0 00-1.082 1.07c-.02.173-.014.347.019.516.066.36.227.715.393 1.026l.72 1.35c.402.763.809 1.52 1.225 2.276.269.492.492.914.7 1.263.04.066.086.137.12.197.255.42.46.685.667.874.135.13.296.229.473.29.185.06.382.083.576.064.099-.012.197-.03.294-.052.096-.025.19-.056.283-.091.1-.038.197-.083.29-.135a7.154 7.154 0 001.502-1.125c.539-.53 1.015-1.11 1.385-1.77a2.2 2.2 0 00.134-.292c.035-.093.065-.187.09-.282.022-.098.039-.196.05-.295a1.395 1.395 0 00-.066-.576 1.284 1.284 0 00-.291-.473z" fill="#FF1A1A"/><path fill-rule="evenodd" clip-rule="evenodd" d="M32.35 12.352c0-1.113.909-2.023 2.003-2.023 1.08 0 1.955.91 2.002 2.04v15.79c0 1.113-.907 2.022-2.002 2.022a2.003 2.003 0 01-2.002-2.023V12.352zm-1.86 9.754c-.015.313-.093.893-.5 1.317-.438.455-1.032.564-1.376.564-1.431.008-2.862.012-4.293.016-1.43.004-2.862.008-4.293.016.126.392.376.988.939 1.536.344.33.672.518.813.596.172.11.766.424 1.5.424.783 0 1.47-.25 2.144-.596l.056-.03c.467-.24.95-.49 1.46-.582.5-.078 1.033.016 1.424.36.469.41.657 1.005.485 1.616-.204.69-.782 1.286-1.392 1.647-.344.203-.72.376-1.095.517a8.252 8.252 0 01-3.018.47c-.25 0-.516 0-.782-.03a7.007 7.007 0 01-.83-.158 5.882 5.882 0 01-1.25-.423 6.853 6.853 0 01-1.142-.643 7.452 7.452 0 01-1-.863 7.735 7.735 0 01-.83-1.034c-.844-1.286-1.235-2.87-1.157-4.407.063-1.505.563-3.01 1.47-4.234a3.46 3.46 0 01.32-.407l.134-.157c1.12-1.37 2.617-1.803 3.234-1.982l.034-.01a7.014 7.014 0 013.832 0c.297.08 1.97.596 3.268 1.992.063.063.235.266.454.564a7.47 7.47 0 011.202 2.517l.002.008c.094.345.188.815.188 1.396zm-9.18-2.588a3.531 3.531 0 00-1.22 1.976h6.819a3.64 3.64 0 00-1.235-1.976 3.565 3.565 0 00-2.19-.784c-.297 0-1.266.047-2.173.784zm25.929-4.155c-1.782 0-3.41.8-4.566 2.101v-.047a1.995 1.995 0 00-3.988.11v15.07c0 1.113.892 2.006 2.002 2.006 1.11 0 2.002-.893 2.002-2.007v-4.704c1.157 1.286 2.768 2.101 4.566 2.101 3.58 0 6.49-3.246 6.49-7.29-.016-4.047-2.925-7.34-6.506-7.34zm-.876 11.353c-2.032 0-3.69-1.772-3.69-3.983 0-2.227 1.642-3.999 3.69-3.999 2.034 0 3.69 1.772 3.69 4-.014 2.21-1.656 3.982-3.69 3.982zM13.35 23.752l-.657 1.443c-.297.627-.594 1.27-.876 1.913-.09.197-.18.398-.272.603-1.25 2.78-2.733 6.081-5.967 6.783-1.564.345-3.926-.126-4.801-1.6-.876-1.49.422-3.199 2.095-2.807.264.06.524.19.785.32.436.216.879.437 1.358.34.453-.079.735-.409 1.094-.832a3.9 3.9 0 00.813-1.553.738.738 0 01-.023-.055.75.75 0 00-.023-.054c-.408-.76-.763-1.439-1.06-2.006-.194-.37-.362-.692-.504-.958l-.683-1.294c-.5-.948-.582-1.104-.803-1.513a57.48 57.48 0 00-1.532-2.713c-.58-.972-1.173-2.054-.69-3.199a1.913 1.913 0 012.347-1.098c1.007.306 1.452 1.264 1.87 2.16.075.161.15.321.226.475.672 1.333 1.329 2.666 1.986 3.998.058.133.146.314.253.533.096.196.207.423.325.675.062.13.12.252.174.362.068.14.127.262.17.36.305-.76.614-1.518.923-2.274.309-.757.618-1.514.923-2.274.008-.043.08-.205.19-.45a36.4 36.4 0 00.474-1.093c.406-.989.894-2.178 1.979-2.503a1.93 1.93 0 012.11.737c.236.33.33.706.345 1.082.013.832-.39 1.725-.735 2.492-.084.187-.164.366-.235.535l-.041.092c-.096.214-.355.798-.803 1.758-.162.344-.317.69-.474 1.037-.086.191-.172.384-.261.578z" fill="#FAFAFC"/></svg>
